gama.ui.shared/icons_svg/light/views/view.other.svg

<svg height="25" viewBox="-192.5 -3409.567 25 25" width="25" xmlns="http://www.w3.org/2000/svg"><g fill="none"><path d="m-188.15998-3409.0673h16.32c2.12077 0 3.84 1.7193 3.84 3.84v16.32c0 2.1208-1.71923 3.84-3.84 3.84h-16.32c-2.12078 0-3.84-1.7192-3.84-3.84v-16.32c0-2.1207 1.71922-3.84 3.84-3.84z" fill="#fff"/><path d="m-188.15998-3409.0673h16.32c2.12077 0 3.84 1.7193 3.84 3.84v16.32c0 2.1208-1.71923 3.84-3.84 3.84h-16.32c-2.12078 0-3.84-1.7192-3.84-3.84v-16.32c0-2.1207 1.71922-3.84 3.84-3.84z" stroke="#000" stroke-linecap="round" stroke-linejoin="round" stroke-width=".25"/><path d="m-172-3391.2883c0 1.226-.995 2.221-2.22099 2.221h-11.55802c-1.22599 0-2.22099-.995-2.22099-2.221v-11.558c0-1.226.995-2.221 2.22099-2.221h11.55802c1.22599 0 2.22099.995 2.22099 2.221zm-.8884-10.2254v-1.3326c0-.7374-.59522-1.3327-1.33259-1.3327h-11.55802c-.73737 0-1.33259.5953-1.33259 1.3327v1.3326zm0 .8884h-14.2232v9.337c0 .7373.59522 1.3326 1.33259 1.3326h11.55802c.73737 0 1.33259-.5953 1.33259-1.3326zm-13.3348-2.6652h.88839v.8885h-.88839zm1.77678 0h.8884v.8885h-.8884zm1.77679 0h.8884v.8885h-.8884z" fill="#66727e"/></g></svg>

<?xml version="1.0" encoding="UTF-8" standalone="no"?>
<!DOCTYPE svg PUBLIC "-//W3C//DTD SVG 1.1//EN" "http://www.w3.org/Graphics/SVG/1.1/DTD/svg11.dtd">
<svg xmlns:dc="http://purl.org/dc/elements/1.1/" xmlns:xl="http://www.w3.org/1999/xlink" version="1.1" xmlns="http://www.w3.org/2000/svg" viewBox="-192.49998 -3409.5673 25 25" width="25" height="25">
  <defs/>
  <g id="SOURCES" stroke-dasharray="none" stroke="none" stroke-opacity="1" fill="none" fill-opacity="1">
    <title>SOURCES</title>
    <g id="SOURCES_Calque_2">
      <title>Calque 2</title>
      <g id="Group_9724">
        <g id="Graphic_9727">
          <title>views/view.other</title>
          <path d="M -188.15998 -3409.0673 L -171.83998 -3409.0673 C -169.71921 -3409.0673 -167.99998 -3407.348 -167.99998 -3405.2273 L -167.99998 -3388.9073 C -167.99998 -3386.7865 -169.71921 -3385.0673 -171.83998 -3385.0673 L -188.15998 -3385.0673 C -190.28076 -3385.0673 -191.99998 -3386.7865 -191.99998 -3388.9073 L -191.99998 -3405.2273 C -191.99998 -3407.348 -190.28076 -3409.0673 -188.15998 -3409.0673 Z" fill="white"/>
          <path d="M -188.15998 -3409.0673 L -171.83998 -3409.0673 C -169.71921 -3409.0673 -167.99998 -3407.348 -167.99998 -3405.2273 L -167.99998 -3388.9073 C -167.99998 -3386.7865 -169.71921 -3385.0673 -171.83998 -3385.0673 L -188.15998 -3385.0673 C -190.28076 -3385.0673 -191.99998 -3386.7865 -191.99998 -3388.9073 L -191.99998 -3405.2273 C -191.99998 -3407.348 -190.28076 -3409.0673 -188.15998 -3409.0673 Z" stroke="black" stroke-linecap="round" stroke-linejoin="round" stroke-width=".25"/>
        </g>
        <g id="Group_9725">
          <title>window</title>
          <g id="Graphic_9726">
            <path d="M -172 -3391.2883 C -172 -3390.0623 -172.995 -3389.0673 -174.22099 -3389.0673 L -185.77901 -3389.0673 C -187.005 -3389.0673 -188 -3390.0623 -188 -3391.2883 L -188 -3402.8463 C -188 -3404.0723 -187.005 -3405.0673 -185.77901 -3405.0673 L -174.22099 -3405.0673 C -172.995 -3405.0673 -172 -3404.0723 -172 -3402.8463 L -172 -3391.2883 Z M -172.8884 -3401.5137 L -172.8884 -3402.8463 C -172.8884 -3403.5837 -173.48362 -3404.179 -174.22099 -3404.179 L -185.77901 -3404.179 C -186.51638 -3404.179 -187.1116 -3403.5837 -187.1116 -3402.8463 L -187.1116 -3401.5137 Z M -172.8884 -3400.6253 L -187.1116 -3400.6253 L -187.1116 -3391.2883 C -187.1116 -3390.551 -186.51638 -3389.9557 -185.77901 -3389.9557 L -174.22099 -3389.9557 C -173.48362 -3389.9557 -172.8884 -3390.551 -172.8884 -3391.2883 Z M -186.2232 -3403.2905 L -185.33481 -3403.2905 L -185.33481 -3402.402 L -186.2232 -3402.402 Z M -184.44642 -3403.2905 L -183.55802 -3403.2905 L -183.55802 -3402.402 L -184.44642 -3402.402 Z M -182.66963 -3403.2905 L -181.78123 -3403.2905 L -181.78123 -3402.402 L -182.66963 -3402.402 Z" fill="#66727e"/>
          </g>
        </g>
      </g>
    </g>
  </g>
</svg>
